!!!!SEGMENT: pl-kozmzk--mzk-m-346--008_walczynski-franciszek--cantantibus-organis-andante.krn
!!!cenid: 18xx:2803
!!!COM: Walczyński, Franciszek
!!!COM-rismid: pe30021989
!!!CDT: ~1852-1937
!!!CNT: Polish
!!!OTL: Cantantibus organis – Andante
!!!PDT: 1898
!!!AGN: Secular
!!!SMS-siglum: PL-KOZmzk
!!!SMS-shelfmark: mzk/m/346
!!!SMS-shelfwork: 008 G
!!!SMS-variant:
!!!SMS-altvar:
!!!NIFC-rismid: 1001109070
!!!URL-scan: https://repozytorium.nifc.pl/islandora/object/pl-kozmzk%3A7453/datastream/PDF/view
!!!ONB-nifc:
**kern	**kern	**dynam
*part2	*part1	*part1
*staff2	*staff1	*
*I"Organo	*I"Organo	*
*clefF4	*clefG2	*
*k[f#]	*k[f#]	*
*M2/4	*M2/4	*
=1	=1	=1
*	*^	*
!	!LO:TX:a:B:t=Andante.	!	!
(8E\L	2r	2r	p
8G\)	.	.	.
8E'\	.	.	.
8D'\J	.	.	.
=2	=2	=2	=2
*^	*	*	*
(8A/L	(4.C\	2r	2r	.
8c/)	.	.	.	.
8A'/	.	.	.	.
8G'/J	8C#X\	.	.	.
=3	=3	=3	=3	=3
(8F#/L	4D\	2r	2r	.
8c/	.	.	.	.
8B/	4D#X\)	.	.	.
8A/J)	.	.	.	.
=4	=4	=4	=4	=4
4.G/	(8E\L	2r	(8e\L	.
.	8BB\	.	8g\J)	.
.	8C\	.	8e'\L	.
8G#X/	8BB\J	.	8d'\J	.
=5	=5	=5	=5	=5
!	!	!	!	!LO:DY:a
4.A/	4C\	(8a/L	4c\	f
.	.	8cc/)	.	.
.	8C\L	8a'/	4e\	.
8B-X/	8C#X\J)	[8g'/J	.	.
=6	=6	=6	=6	=6
(8Bn/L	2D\	(8g/L]	4.d\	.
16A/L	.	16f#/L	.	.
16G/JJ	.	16e/JJ	.	.
4F#/	.	4a/	.	.
.	.	.	8c\	.
=7	=7	=7	=7	=7
8G/L	[2GG\	2g/)	2B\	.
16F#/L	.	.	.	.
16E/JJ	.	.	.	.
4D/)	.	.	.	.
=8	=8	=8	=8	=8
(8E/L	2GG\_	(2g/	4.c\	.
8G/)	.	.	.	.
8E'/	.	.	.	.
8D'/J	.	.	8B\	.
=9	=9	=9	=9	=9
(4C#X/	2GG\_	(8e/L	4.B-X\	.
.	.	8g/)	.	.
8G/L	.	8e'/	.	.
8F#/J	.	8dn'/J	8c\	.
=10	=10	=10	=10	=10
8G/L	2GG\]	4d/	2Bn\	.
[8D/J	.	.	.	.
4D;/])	.	4g;/)	.	.
=11	=11	=11	=11	=11
!!LO:LB:g=original
!	!	!	!	!LO:DY:t=pf
(8AL	2rBB	2rg	2r	fp
8c)	.	.	.	.
8A'	.	.	.	.
8G'J	.	.	.	.
=12	=12	=12	=12	=12
!	!	!	!	!LO:DY:t=pf
(4.F#	2rBB	(8aL	2re	fp
.	.	8cc)	.	.
.	.	8a'	.	.
8E	.	8g'J	.	.
=13	=13	=13	=13	=13
4.D	2rBB	(4.f#	(8AL	.
.	.	.	8c)	.
.	.	.	8A'	.
8C#)	.	8e	8G'J	.
=14	=14	=14	=14	=14
!	!	!	!	!LO:DY:b=2
(2D	(8AAL	2d	(4.F#	pp
.	8C)	.	.	.
.	8AA'	.	.	.
.	8GG'J	.	8B	.
=15	=15	=15	=15	=15
4G	(4CC	[2e	2c	.
.	.	.	.	.
4A	4AA	.	.	.
.	.	.	.	.
=16	=16	=16	=16	=16
2G)	2EE;)	2e;])	2B)	.
.	.	.	.	.
.	.	.	.	.
.	.	.	.	.
=17	=17	=17	=17	=17
!	!	!	!	!LO:DY:a
2r	2rG	(8eeL	2rg	f
.	.	8gg)	.	.
.	.	8ee'	.	.
.	.	8dd'J	.	.
=18	=18	=18	=18	=18
4r	4ryy	(8bL	4r	.
.	.	8dd)	.	.
8r	8ryy	8b'	8r	.
!	!LO:TX:i:b=2:t=Ped.	!	!	!
(8F#	8D	8a'J	8c	.
=19	=19	=19	=19	=19
4G	[2GG	2g	2B	.
.	.	.	.	.
4D	.	.	.	.
.	.	.	.	.
=20	=20	=20	=20	=20
!	!	!	!	!LO:DY:a
8EL	2GG_	[2g	(4.c	fp
8G	.	.	.	.
8E	.	.	.	.
8DJ	.	.	8B	.
=21	=21	=21	=21	=21
!	!	!	!	!LO:DY:a
8BBL	2GG_	2g_	8GL	pp
!LO:TX:b:i:t=rit.	!	!	!	!
8D	.	.	8B	.
8BB	.	.	8d	.
8AAJ	.	.	8cJ	.
=22	=22	=22	=22	=22
2GG)	2GG;]	2g;]	2B)	.
.	.	.	.	.
.	.	.	.	.
.	.	.	.	.
*v	*v	*	*	*
*	*v	*v	*
==	==	==
*-	*-	*-
!!!system-decoration: {(s1,s2)}
!!!ENC: Kamil Watkowski
!!!END: 2021-08-09
